symbols/web/bluetooth_drive/materialsymbolsrounded/bluetooth_drive_grad200fill1_24px.svg

<svg xmlns="http://www.w3.org/2000/svg" height="24" width="24"><path d="M6.425 16.1q.65 0 1.125-.475t.475-1.125q0-.65-.475-1.125T6.425 12.9q-.65 0-1.125.475T4.825 14.5q0 .65.475 1.125t1.125.475Zm9.15 0q.65 0 1.125-.475t.475-1.125q0-.65-.475-1.125t-1.125-.475q-.65 0-1.125.475t-.475 1.125q0 .65.475 1.125t1.125.475Zm3.5-5.225q-.125-.05-.212-.187-.088-.138-.088-.263V7.2l-1.85 1.9q-.175.175-.4.175-.225 0-.4-.175-.175-.175-.175-.4 0-.225.175-.4l2.45-2.45-2.45-2.45q-.175-.175-.2-.388Q15.9 2.8 16.1 2.6q.175-.2.425-.2t.425.175l1.825 1.875V1.225q0-.125.088-.263.087-.137.212-.187.125-.05.275-.025.15.025.25.125l2.325 2.35q.2.2.188.462-.013.263-.213.463l-1.725 1.7L21.9 7.575q.2.2.2.462 0 .263-.2.463l-2.3 2.275q-.1.1-.25.125-.15.025-.275-.025Zm.9-6.425.8-.75-.8-.8Zm0 4.4.8-.8-.8-.85Zm-16.65 12.5q-.725 0-1.213-.487-.487-.488-.487-1.213v-7.7l2.15-6.2q.2-.5.613-.8.412-.3.937-.3h9.75V6.9h-9.35l-.95 2.8h10.3q0 .925.65 1.587.65.663 1.6.663h3.05v7.7q0 .725-.487 1.213-.488.487-1.213.487-.725 0-1.213-.487-.487-.488-.487-1.213v-.3H5.025v.3q0 .725-.488 1.213-.487.487-1.212.487Z"/></svg>

<svg xmlns="http://www.w3.org/2000/svg" height="24" width="24"><path d="M6.425 16.1Q7.075 16.1 7.55 15.625Q8.025 15.15 8.025 14.5Q8.025 13.85 7.55 13.375Q7.075 12.9 6.425 12.9Q5.775 12.9 5.3 13.375Q4.825 13.85 4.825 14.5Q4.825 15.15 5.3 15.625Q5.775 16.1 6.425 16.1ZM15.575 16.1Q16.225 16.1 16.7 15.625Q17.175 15.15 17.175 14.5Q17.175 13.85 16.7 13.375Q16.225 12.9 15.575 12.9Q14.925 12.9 14.45 13.375Q13.975 13.85 13.975 14.5Q13.975 15.15 14.45 15.625Q14.925 16.1 15.575 16.1ZM19.075 10.875Q18.95 10.825 18.863 10.688Q18.775 10.55 18.775 10.425V7.2L16.925 9.1Q16.75 9.275 16.525 9.275Q16.3 9.275 16.125 9.1Q15.95 8.925 15.95 8.7Q15.95 8.475 16.125 8.3L18.575 5.85L16.125 3.4Q15.95 3.225 15.925 3.012Q15.9 2.8 16.1 2.6Q16.275 2.4 16.525 2.4Q16.775 2.4 16.95 2.575L18.775 4.45V1.225Q18.775 1.1 18.863 0.962Q18.95 0.825 19.075 0.775Q19.2 0.725 19.35 0.75Q19.5 0.775 19.6 0.875L21.925 3.225Q22.125 3.425 22.113 3.687Q22.1 3.95 21.9 4.15L20.175 5.85L21.9 7.575Q22.1 7.775 22.1 8.037Q22.1 8.3 21.9 8.5L19.6 10.775Q19.5 10.875 19.35 10.9Q19.2 10.925 19.075 10.875ZM19.975 4.45 20.775 3.7 19.975 2.9ZM19.975 8.85 20.775 8.05 19.975 7.2ZM3.325 21.35Q2.6 21.35 2.112 20.863Q1.625 20.375 1.625 19.65V11.95L3.775 5.75Q3.975 5.25 4.388 4.95Q4.8 4.65 5.325 4.65H15.075V6.9H5.725L4.775 9.7H15.075Q15.075 10.625 15.725 11.287Q16.375 11.95 17.325 11.95H20.375V19.65Q20.375 20.375 19.888 20.863Q19.4 21.35 18.675 21.35Q17.95 21.35 17.462 20.863Q16.975 20.375 16.975 19.65V19.35H5.025V19.65Q5.025 20.375 4.537 20.863Q4.05 21.35 3.325 21.35Z"/></svg>
